build/Karasa-Jaga/scalable/emblems/emblem-favorite-symbolic.svg

<svg height="16" width="16" xmlns="http://www.w3.org/2000/svg"><path d="m3.0601137 1.2324172c-1.4825532.7298586-2.4693707 2.1763127-2.76429795 3.9621604-.27148993 1.6439383.23013014 3.4030493 1.44357785 4.9757364 1.2099271 1.568124 3.9878554 3.988562 5.4978815 4.79145.7165778.381008.8635028.372498 1.965723-.368573 2.2116109-1.486964 4.8366889-3.925338 5.5900249-5.1907376.764071-1.2834305.979421-2.0429877.982861-3.5321585.002949-1.2597177-.037987-1.4151343-.430002-2.2114384-1.037413-2.1072837-3.258686-3.31867112-5.259977-2.71341026-.6457346.32083926-1.4341969.95225606-2.2108177.94870656-.7184029-.0032828-1.4266736-.617214-2.0024643-.91892586-1.5919329-.37065083-2.0982098-.00540574-2.8125093.25719026z" fill="#bebebe"/></svg>

<?xml version="1.0" encoding="UTF-8" standalone="no"?>
<!-- Created with Inkscape (http://www.inkscape.org/) -->

<svg
   xmlns:dc="http://purl.org/dc/elements/1.1/"
   xmlns:cc="http://creativecommons.org/ns#"
   xmlns:rdf="http://www.w3.org/1999/02/22-rdf-syntax-ns#"
   xmlns:svg="http://www.w3.org/2000/svg"
   xmlns="http://www.w3.org/2000/svg"
   xmlns:xlink="http://www.w3.org/1999/xlink"
   xmlns:sodipodi="http://sodipodi.sourceforge.net/DTD/sodipodi-0.dtd"
   xmlns:inkscape="http://www.inkscape.org/namespaces/inkscape"
   version="1.1"
   width="16"
   height="16"
   id="svg3808"
   inkscape:version="0.48.3.1 r9886"
   sodipodi:docname="drive-multidisk-symbolic.svg">
  <sodipodi:namedview
     pagecolor="#ffffff"
     bordercolor="#666666"
     borderopacity="1"
     objecttolerance="10"
     gridtolerance="10"
     guidetolerance="10"
     inkscape:pageopacity="0"
     inkscape:pageshadow="2"
     inkscape:window-width="1366"
     inkscape:window-height="696"
     id="namedview7"
     showgrid="false"
     showguides="true"
     inkscape:guide-bbox="true"
     inkscape:zoom="7.375"
     inkscape:cx="5.885269"
     inkscape:cy="3.3287388"
     inkscape:window-x="0"
     inkscape:window-y="0"
     inkscape:window-maximized="1"
     inkscape:current-layer="svg3808">
    <inkscape:grid
       type="xygrid"
       id="grid3053"
       empspacing="5"
       visible="true"
       enabled="true"
       snapvisiblegridlinesonly="true" />
  </sodipodi:namedview>
  <defs
     id="defs3810">
    <linearGradient
       inkscape:collect="always"
       xlink:href="#XMLID_19_"
       id="linearGradient12942"
       gradientUnits="userSpaceOnUse"
       gradientTransform="matrix(0,-0.44649484,0.43865775,0,44.314056,98.880451)"
       x1="180.37399"
       y1="-157.96339"
       x2="188.83299"
       y2="-157.96339" />
    <linearGradient
       id="XMLID_19_"
       gradientUnits="userSpaceOnUse"
       x1="180.37399"
       y1="-157.96339"
       x2="188.83299"
       y2="-157.96339"
       gradientTransform="matrix(0,-1.8884098,1.8552635,0,317.52681,460.62003)">
      <stop
         offset="0"
         style="stop-color:#DDDDDD"
         id="stop126" />
      <stop
         offset="0.2738"
         style="stop-color:#BBBBBB"
         id="stop128" />
      <stop
         offset="0.5617"
         style="stop-color:#9F9F9F"
         id="stop130" />
      <stop
         offset="0.8136"
         style="stop-color:#8E8E8E"
         id="stop132" />
      <stop
         offset="1"
         style="stop-color:#888888"
         id="stop134" />
    </linearGradient>
    <linearGradient
       inkscape:collect="always"
       xlink:href="#linearGradient6253-0"
       id="linearGradient12938"
       gradientUnits="userSpaceOnUse"
       gradientTransform="matrix(0.29171261,0,0,0.49647278,-6.3928271,69.131208)"
       x1="-35.539001"
       y1="-144.21001"
       x2="-35.539001"
       y2="-108.32" />
    <linearGradient
       id="linearGradient6253-0">
      <stop
         style="stop-color:#ffffff;stop-opacity:1"
         offset="0"
         id="stop6255-0" />
      <stop
         id="stop6257-8"
         offset="0.64336616"
         style="stop-color:#efefef;stop-opacity:1" />
      <stop
         style="stop-color:#e5e5e5;stop-opacity:1"
         offset="1"
         id="stop6259-5" />
    </linearGradient>
    <linearGradient
       inkscape:collect="always"
       xlink:href="#linearGradient3214"
       id="linearGradient12940"
       gradientUnits="userSpaceOnUse"
       gradientTransform="matrix(0.79749691,0,0,1.368051,-28.610824,-12.086273)"
       x1="7.8513999"
       y1="19.968"
       x2="7.8513999"
       y2="7.0348001" />
    <linearGradient
       x1="7.8513999"
       y1="19.968"
       gradientTransform="matrix(0.64516,0,0,0.97976,0.25806,-6.7257)"
       x2="7.8513999"
       gradientUnits="userSpaceOnUse"
       y2="7.0348001"
       id="linearGradient3214">
      <stop
         offset="0"
         style="stop-color:#848484;stop-opacity:1;"
         id="stop3486" />
      <stop
         offset="1"
         style="stop-color:#bebebe;stop-opacity:1;"
         id="stop3488" />
    </linearGradient>
    <linearGradient
       inkscape:collect="always"
       xlink:href="#linearGradient3217"
       id="linearGradient12936"
       gradientUnits="userSpaceOnUse"
       gradientTransform="matrix(0.86516705,0,0,1.4752569,9.9026508,-95.765287)"
       x1="46.426998"
       y1="101.88"
       x2="46.426998"
       y2="85.788002" />
    <linearGradient
       x1="46.426998"
       y1="101.88"
       gradientTransform="matrix(0.12584,0,0,0.1986,0.13145,-5.1684)"
       x2="46.426998"
       gradientUnits="userSpaceOnUse"
       y2="85.788002"
       id="linearGradient3217">
      <stop
         offset="0"
         style="stop-color:#aaa"
         id="stop2223" />
      <stop
         offset="1"
         style="stop-color:#646464"
         id="stop2219" />
    </linearGradient>
    <linearGradient
       y2="85.788002"
       x2="46.426998"
       y1="101.88"
       x1="46.426998"
       gradientTransform="matrix(0.15555368,0,0,0.26524546,-28.767329,-8.8387032)"
       gradientUnits="userSpaceOnUse"
       id="linearGradient13048"
       xlink:href="#linearGradient3217"
       inkscape:collect="always" />
  </defs>
  <metadata
     id="metadata3813">
    <rdf:RDF>
      <cc:Work
         rdf:about="">
        <dc:format>image/svg+xml</dc:format>
        <dc:type
           rdf:resource="http://purl.org/dc/dcmitype/StillImage" />
        <dc:title></dc:title>
      </cc:Work>
    </rdf:RDF>
  </metadata>
  <path
     style="fill:#bebebe;fill-opacity:1"
     d="M 3.0601137,1.2324172 C 1.5775605,1.9622758 0.590743,3.4087299 0.29581575,5.1945776 0.02432582,6.8385159 0.52594589,8.5976269 1.7393936,10.170314 c 1.2099271,1.568124 3.9878554,3.988562 5.4978815,4.79145 0.7165778,0.381008 0.8635028,0.372498 1.965723,-0.368573 C 11.414609,13.106227 14.039687,10.667853 14.793023,9.4024534 15.557094,8.1190229 15.772444,7.3594657 15.775884,5.8702949 15.778833,4.6105772 15.737897,4.4551606 15.345882,3.6588565 14.308469,1.5515728 12.087196,0.34018538 10.085905,0.94544624 9.4401704,1.2662855 8.6517081,1.8977023 7.8750873,1.8941528 7.1566844,1.89087 6.4484137,1.2769388 5.872623,0.97522694 4.2806901,0.60457611 3.7744132,0.9698212 3.0601137,1.2324172 z"
     id="path3112"
     inkscape:connector-curvature="0"
     sodipodi:nodetypes="cssssscscscc" />
</svg>
